X:1
T: Mrs Rait's Strathspey
C:
R:Strathspey
Q: 128
K:A
M:4/4
L:1/16
|:E2|AA3 c3A F4 E3F|AA3 c3A e3A c3A|c3e dcBA F4 E3F|ABcd e3c A6 E2|
AA3 c3A F4 E3F|AA3 c3A e3A c3A|c3e dcBA F4 E3F|ABcd e3c A6 f2|
eA3 c3e dcBA B2cd|eA3 ce3 aA3 ce3|eA3 ce3 dcBA F3E|ABcd e3c A4 Af3|
eA3 c3e dcBA B2cd|eA3 fA3 gA3 aA3|c3e dcBA F4 F3E|ABcd e3c A6:|
